build/img/svg/icon-inst.svg

<svg viewBox="0 0 27 27" fill="none" xmlns="http://www.w3.org/2000/svg">
<path d="M19.6913 0H7.30865C3.27859 0 0 3.27859 0 7.30865V19.6916C0 23.7214 3.27859 27 7.30865 27H19.6916C23.7214 27 27 23.7214 27 19.6916V7.30865C27 3.27859 23.7214 0 19.6913 0V0ZM13.5 20.8826C9.42915 20.8826 6.11739 17.5708 6.11739 13.5C6.11739 9.42915 9.42915 6.11739 13.5 6.11739C17.5708 6.11739 20.8826 9.42915 20.8826 13.5C20.8826 17.5708 17.5708 20.8826 13.5 20.8826ZM21.0591 7.85845C19.8561 7.85845 18.8777 6.87998 18.8777 5.67698C18.8777 4.47398 19.8561 3.4953 21.0591 3.4953C22.2621 3.4953 23.2408 4.47398 23.2408 5.67698C23.2408 6.87998 22.2621 7.85845 21.0591 7.85845Z" fill="white"/>
<path d="M13.5002 7.70044C10.3023 7.70044 7.70044 10.3021 7.70044 13.5002C7.70044 16.698 10.3023 19.2999 13.5002 19.2999C16.6982 19.2999 19.2999 16.698 19.2999 13.5002C19.2999 10.3021 16.6982 7.70044 13.5002 7.70044Z" fill="white"/>
<path d="M21.0583 5.07861C20.7283 5.07861 20.4597 5.34723 20.4597 5.67723C20.4597 6.00723 20.7283 6.27585 21.0583 6.27585C21.3885 6.27585 21.6572 6.00744 21.6572 5.67723C21.6572 5.34702 21.3885 5.07861 21.0583 5.07861Z" fill="white"/>
</svg>

<svg viewBox="0 0 27 27" fill="none" xmlns="http://www.w3.org/2000/svg"><path d="M19.691 0H7.31C3.279 0 0 3.279 0 7.309v12.383C0 23.722 3.279 27 7.309 27h12.383C23.722 27 27 23.721 27 19.692V7.309C27 3.279 23.721 0 19.691 0zM13.5 20.883c-4.07 0-7.383-3.312-7.383-7.383 0-4.07 3.312-7.383 7.383-7.383 4.07 0 7.383 3.312 7.383 7.383 0 4.07-3.312 7.383-7.383 7.383zm7.56-13.025a2.184 2.184 0 01-2.182-2.181c0-1.203.978-2.182 2.181-2.182s2.182.979 2.182 2.182a2.184 2.184 0 01-2.182 2.181z" fill="#fff"/><path d="M13.5 7.7a5.806 5.806 0 00-5.8 5.8c0 3.198 2.602 5.8 5.8 5.8s5.8-2.602 5.8-5.8-2.602-5.8-5.8-5.8zm7.558-2.621a.6.6 0 10.002 1.198.6.6 0 00-.002-1.198z" fill="#fff"/></svg>
